X: 35785
T: Sally May Melia
R: reel
M: 4/4
K: Gmajor
|:GBdg edBA|GEEE EDDE|DGBd egdG|BAAG A2ge|
d2dd edBA|GEEE EDDE|DGBd egdB|1 AGAB G2DE:|2 AGAB G2gf||
|:e2ef g2gf|edde dBAG|FGAB cccd|edde B2BB|
c2de agfe|ed^ce dBAG|FGAB cedF|1 AGGF G2gf:|2 AGGE DEGA||

